X: 3
T: Brenda Stubbert
R: Reel
C: Jerry Holland
O: Cape Breton
D: Altan: The Red Crow
M: C|
L: 1/8
K: Am
|:B \
|"Am"A2BA GAAB  | A2B[dA] edd[eB] | "G"G2BA BGGB | c2BA BGGB |
|"Am"A2BA GAAB  | A2B[dA] edda    | "G"gedB GABd  | "(Em)"e2dB "Am"eAA :|
[| B \
|"Am"(3AAAa2 (3AAAg2 | Aage age[gd]  | "G"G2BA BGGB | c2BA BGGB |
|"Am"(3AAAa2 (3AAAg2 | Aage agea     | "G"gedB GABd  | "(Em)"e2dB "Am"eAA ||
|| B \
|"Am"(3AAAa2 (3AAAg2 | Aage age[gd]  | "G"G2BA BGGB | c2BA BGGB |
|"Am"A2BA GAAB  | A2Bd edda    | "G"gedB GABd  | "(Em)"e2dB "Am"eAA |]
%% More Maids: Live (50 bpm)
%% Altan: The Red Crow (82 bpm)

